X:1
T:I remember Clifford
T:I remember Clifford
C:Benny Golson
Z:All Rights Reserved
L:1/8
M:4/4
K:Eb
V:1 treble 
%%MIDI program 40
V:1
"Abmaj7" z CEG BAEF |"Bb7" G2"Bdim" G6 |"G7" z G=Bd f3 d |"Cm" e8 |"Abmaj7" z CEF G2 EC | %5
w: I know he'll ne- ver be for-|got- en|He was a king un-|crown'd|I know I'll al- ways re-|
"Fm7" E2 E4"Bb7" B2 |"Ebmaj7" G6"G7" FD |"Cm" E6"Bdim" (3FGA |"Eb/Bb" B3 B"G7" =BGd=B | %9
w: mem- ber the|warmth of his|sound lin- ger- ing|long, I'm sure he's still a-|
"Cm" c4- cGcd |"Am7b5" e4"D7" dcBc |"Gm" d4 ddBB- |"Edim" B6 AG |"Fm7" A6"Bb7" B2 |"Eb" G6"G7" FD | %15
w: round * For those who|heard they re- peat him|yet so those who *|hear won't for-|get the|sound of his|
"Abmaj7" E6"Bb7" (3FGA |"Eb/G" B3 B"G7" =BGd=B |"Cm" c4- cGee |"Am7b5" e6- e"D7"d | %19
w: phrase ech- oes a|time un- count- a- ble by|days * The things he|played * are|
"Gm7b5" _d_d _d4- d"C7"c |"Fm7" F3 c"Bb7" ^F3 d |"Gm7" G3 d"C7" c3 e |"Am7b5" e4"D7" dcBc | %23
w: with us now * and|they'll en- dure should|time al- low Oh|yes, I re- mem- ber|
"Gm7" d G4"Cm7" ccG |"Fm7" GGEF"Bb7" G3 c |"Ebmaj7" B8 |"Dm7b5" z2 A/A/A/A/"G7" BAGF | %27
w: Clif- ford I seem to|al- ways hear him near some-|how|Ev- 'ry day I hear his love- ly|
"Cm" G4- Geec |"Am7b5" ec"D7" f3 edc |"Gm7" dd"C7"dB"Fm7" c3"Bb7" B |"Ebmaj7" G6"G7" FD | %31
w: tone * in ev- 'ry|trum- pet sound that has a|beau- ty all its own so|how can we|
"Abmaj7" E4-"Adim" Eccc |"Eb/Bb" B3 B"G7" =B=Bgf |"Cm" e4-"^/Bb" eeec |"Am7b5" e6- e"D7"d | %35
w: say * some- one so|real has real- ly gone a-|way? * I hear him|now * and|
"Gm7b5" _dB_d_d"C7" _d c3 |"Fm7" GEG E3"Bb7" cd |"Eb/G" B4"B7/F#" =B4 |"Fm7" z CEG BAEF | %39
w: al- ways will, be- lieve me,|I re- mem- ber Clif- ford|still- *|(Instrumental) * * * * * *|
"Bb7" G2"Bdim" G6 |"G7" z G=Bd f3 d |"Cm" e8 |"Abmaj7" z CEF G2 EC |"Fm7" E2 E4"Bb7" =B2 | %44
w: |||||
"Ebmaj7" B8 |] %45
w: |

